X: 163
T: Yiyangyang de gege liangyangyang kandai
%%abc-version 2.0
%%abcx-abcm2ps-target-version 5.9.1 (29 Sep 2008)
%%abc-creator hum2abc beta
%%abcx-conversion-date 2013/10/02 07:52:29
%%abc-edited-by Helmut Schaffrath
%%humdrum-veritas 2447993244
%%humdrum-veritas-data 77110408
%%continueall 1
%%barnumbers 0
L: 1/8
M: 2/4
K: Bb
c'> d'c'2 [I:setbarnb 1]| 
c' bg2 | 
c' c' d f | 
g4 | 
c' c' c' b | 
g g g f | 
d d d c/ d/ | 
c4 |]  



